X:1
T:Title
%%score ( 1 2 ) { ( 3 5 6 ) | 4 }
L:1/8
Q:1/4=110
M:4/4
K:B
V:1 treble nm="Grand Piano, Unnamed-000"
V:2 treble 
V:3 bass nm="Choir Pad, Würtemburg, 77.774"
V:5 bass 
V:6 bass 
V:4 bass 
V:1
 [EG]2 [EG]2 [FB]2 [DB]2 | E2 [DF]2 [EG]4 | [Ec]2 [Fd]2 [Ee]2 [EG]2 | [EF]2 [DF]2 E4 | %4
w: By~Johann~Rosenmüller~(1610\-1684) * * *||||
 [DB]2 F2 [EG]2 [FG]2 | [^Ec]2 G2 [FA]4 | z4 .G2 z2 | [Gc]2 c-[Ec] [DB]4 | c2 d2 [Ee]2 [EG]2 | %9
w: |||||
 F4 z4 | z8 |] %11
w: ||
V:2
 x8 | x8 | x8 | x8 | x8 | x8 | [FB]2 [DF]2 E-[EA] [DB]2 | z2 .F2 z4 | F4 z4 | E2 D2 E4- | E4 z4 |] %11
V:3
 B,2 B,2 B,2 =A,2 | G,2 B,2 B,4 | C2 =A,2 G,2 C2 | C2 B,2 G,4 | F,2 B,2 B,2[K:treble] ^B,2 | %5
 C2 C2 C4 | B,2[K:bass] B,2 B,2 B,2 | B,2 A,2 B,4 | z4 z2 C2 | C2 B,2 G,4- | G,4 z4 |] %11
V:4
 E,2 E,2 D,2 B,,2 | C,2 B,,2 E,4 | =A,2 F,2 C,2 C,2 | =A,,2 B,,2 E,4 | B,,2 D,2 E,2 D,2 | %5
 C,2 ^E,2 F,4 | D,2 B,,2 E,2 G,2 | E,2 F,2 B,,4 | F,2 B,,2 .C,4 | C,2 B,,2 E,4- | E,4 z4 |] %11
V:5
 x8 | x8 | x8 | x8 | x6[K:treble] x2 | x8 | x2[K:bass] x6 | x8 | z4 G,4 | x8 | x8 |] %11
V:6
 x8 | x8 | x8 | x8 | x6[K:treble] x2 | x8 | x2[K:bass] x6 | x8 | =A,4 z2 z B,, | x8 | x8 |] %11

